1-js/11-async/02-promise-basics/promise-resolve-reject.svg

<?xml version="1.0" encoding="UTF-8"?>
<svg width="512px" height="246px" viewBox="0 0 512 246" version="1.1" xmlns="http://www.w3.org/2000/svg" xmlns:xlink="http://www.w3.org/1999/xlink">
    <!-- Generator: sketchtool 61.2 (101010) - https://sketch.com -->
    <title>promise-resolve-reject.svg</title>
    <desc>Created with sketchtool.</desc>
    <g id="promise" stroke="none" stroke-width="1" fill="none" fill-rule="evenodd">
        <g id="promise-resolve-reject.svg">
            <rect id="Rectangle-1" stroke="#E8C48E" stroke-width="2" fill="#FFF9EB" x="1" y="91" width="182" height="70"></rect>
            <text id="new-Promise(executor" font-family="PTMono-Regular, PT Mono" font-size="14" font-weight="normal" fill="#707175">
                <tspan x="2" y="82">new Promise(executor)</tspan>
            </text>
            <text id="state:-&quot;pending&quot;-res" font-family="PTMono-Regular, PT Mono" font-size="14" font-weight="normal" line-spacing="20" fill="#8A704D">
                <tspan x="13" y="115.431641">state:   "pending"</tspan>
                <tspan x="13" y="135.431641">result:  undefined</tspan>
            </text>
            <path id="Line" d="M196.510091,134.673354 L197.418369,135.091723 L300.702,182.666 L303.212697,177.21654 L313,189.431641 L297.355537,189.932423 L299.865,184.482 L196.581631,136.908277 L195.673354,136.489909 L196.510091,134.673354 Z" fill="#EE6B47" fill-rule="nonzero"></path>
            <path id="Line-Copy" d="M297.379539,55.9994011 L313,57 L302.827244,68.8960094 L300.492,63.368 L197.389122,106.921186 L196.467935,107.310308 L195.689692,105.467935 L196.610878,105.078814 L299.714,61.526 L297.379539,55.9994011 Z" fill="#EE6B47" fill-rule="nonzero"></path>
            <text id="resolve(value)" transform="translate(244.389895, 72.629682) rotate(-23.000000) translate(-244.389895, -72.629682) " font-family="PTMono-Regular, PT Mono" font-size="14" font-weight="normal" fill="#EE6B47">
                <tspan x="185.589895" y="77.1296818">resolve(value)</tspan>
            </text>
            <text id="reject(error)" transform="translate(251.633927, 150.640538) rotate(25.000000) translate(-251.633927, -150.640538) " font-family="PTMono-Regular, PT Mono" font-size="14" font-weight="normal" fill="#EE6B47">
                <tspan x="197.033927" y="155.140538">reject(error)</tspan>
            </text>
            <rect id="Rectangle-1-Copy" stroke="#7ED321" stroke-width="2" fill="#FFF9EB" x="323" y="10" width="182" height="64"></rect>
            <text id="state:-&quot;fulfilled&quot;-r" font-family="PTMono-Regular, PT Mono" font-size="14" font-weight="normal" line-spacing="20" fill="#417505">
                <tspan x="338" y="34.4316406">state:  "fulfilled"</tspan>
                <tspan x="338" y="54.4316406">result: value</tspan>
            </text>
            <rect id="Rectangle-1-Copy-3" stroke="#C74A6C" stroke-width="2" fill="#FCDFE1" x="323" y="177" width="182" height="64"></rect>
            <text id="state:-&quot;rejected&quot;-re" font-family="PTMono-Regular, PT Mono" font-size="14" font-weight="normal" line-spacing="20" fill="#727155">
                <tspan x="338" y="201.431641">state:  "rejected"</tspan>
                <tspan x="338" y="221.431641">result: error</tspan>
            </text>
        </g>
    </g>
</svg>

<svg xmlns="http://www.w3.org/2000/svg" width="512" height="246" viewBox="0 0 512 246"><defs><style>@import url(https://fonts.googleapis.com/css?family=Open+Sans:bold,italic,bolditalic%7CPT+Mono);@font-face{font-family:&apos;PT Mono&apos;;font-weight:700;font-style:normal;src:local(&apos;PT MonoBold&apos;),url(/font/PTMonoBold.woff2) format(&apos;woff2&apos;),url(/font/PTMonoBold.woff) format(&apos;woff&apos;),url(/font/PTMonoBold.ttf) format(&apos;truetype&apos;)}</style></defs><g id="promise" fill="none" fill-rule="evenodd" stroke="none" stroke-width="1"><g id="promise-resolve-reject.svg"><path id="Rectangle-1" fill="#FBF2EC" stroke="#DBAF88" stroke-width="2" d="M1 91h182v70H1z"/><text id="new-Promise(executor" fill="#7E7C7B" font-family="PTMono-Regular, PT Mono" font-size="14" font-weight="normal"><tspan x="2" y="82">new Promise(executor)</tspan></text><text id="state:-&quot;pending&quot;-res" fill="#AF6E24" font-family="PTMono-Regular, PT Mono" font-size="14" font-weight="normal"><tspan x="13" y="115.432">state: &quot;pending&quot;</tspan> <tspan x="13" y="135.432">result: undefined</tspan></text><path id="Line" fill="#C06334" fill-rule="nonzero" d="M196.51 134.673l.908.419 103.284 47.574 2.51-5.45L313 189.433l-15.644.5 2.509-5.45-103.283-47.574-.909-.418.837-1.817z"/><path id="Line-Copy" fill="#C06334" fill-rule="nonzero" d="M297.38 56L313 57l-10.173 11.896-2.335-5.528-103.103 43.553-.921.39-.778-1.843.92-.39 103.104-43.552-2.334-5.527z"/><text id="resolve(value)" fill="#C06334" font-family="PTMono-Regular, PT Mono" font-size="14" font-weight="normal" transform="rotate(-23 244.39 72.63)"><tspan x="185.59" y="77.13">resolve(value)</tspan></text><text id="reject(error)" fill="#C06334" font-family="PTMono-Regular, PT Mono" font-size="14" font-weight="normal" transform="rotate(25 251.634 150.64)"><tspan x="197.034" y="155.141">reject(error)</tspan></text><path id="Rectangle-1-Copy" fill="#FBF2EC" stroke="#478964" stroke-width="2" d="M323 10h182v64H323z"/><text id="state:-&quot;fulfilled&quot;-r" fill="#478964" font-family="PTMono-Regular, PT Mono" font-size="14" font-weight="normal"><tspan x="338" y="34.432">state: &quot;fulfilled&quot;</tspan> <tspan x="338" y="54.432">result: value</tspan></text><path id="Rectangle-1-Copy-3" fill="#FEF1F0" stroke="#D35155" stroke-width="2" d="M323 177h182v64H323z"/><text id="state:-&quot;rejected&quot;-re" fill="#AF6E24" font-family="PTMono-Regular, PT Mono" font-size="14" font-weight="normal"><tspan x="338" y="201.432">state: &quot;rejected&quot;</tspan> <tspan x="338" y="221.432">result: error</tspan></text></g></g></svg>
